!!!COM: Ludwig van Beethoven
!!!CNT: Deutsch
!!!TXO: Deutsch
!!!OTL: "An die ferne Geliebte"
!!!LYR:	Jeitteles, Alois
!!!OPS: Op. 98
!!!ONM: No. 1
!!!ENC: Amanda Harris
!!!YOR: Sa2mtliche Lieder, Band 2
!!!YOR: G. Henle Verlag
!!!ODT: 1816/
!!NB: Vocal melody and text encoded.
**kern	**silbe
*clefG2	*
*k[b-e-a-]	*
*M3/4	*
*MM[ziemlich langsam und mit ausdruck]	*
=1	=1
4r	.
{4b-	{Auf
4b-	dem
=2	=2
4.b-	Hu2-
8cc	-gel
8dd	sitz'
8ee-	ich,
=3	=3
4ee-	spa2-
8g	-hend
8r	.
8a-	in
8g	das
=4	=4
8f	blau-
8a	-e
4cc	Ne-
4cc	-bel-
=5	=5
4f	-land,
4.b-	nach
8cc	den
=6	=6
4b-	fer-
4an	-nen
8a-	Trif-
8b-	-ten
=7	=7
4a-	se-
4g	-hend,
8ee-	wo
8dd	ich
=8	=8
4dd	dich,
8cc	|
8b-	Ge-
8a-	-lieb-
8f	-te,
=9	=9
4e-}	fand.}
4r	.
4r	.
=11	=11
4r	.
{4b-	{Weit
4b-	bin
=12	=12
4.b-	ich
8cc	von
8dd	dir
8ee-	ge-
=13	=13
4ee-	-schie-
8g	-den
8r	.
8a-	tren-
8g	-nend
=14	=14
8f	lie-
8a-	-gen
4cc	Berg
4cc	und
=15	=15
4f	Tal
4.b-	zwi-
8cc	-schen
=16	=16
4b-	uns
4an	und
8a-	un-
8b-	-serm
=17	=17
4a-	Frie-
4g	-den,
8ee-	un-
8dd	-serm
=18	=18
4dd	Glu2ck
8cc	|
8b-	und
8a-	uns-
8f	-rer
=19	=19
4e-}	Qual.}
4r	.
4r	.
=21	=21
4r	.
{4b-	{Ach,
4b-	den
=22	=22
4.b-	Blick
8cc	kannst
8dd	du
8ee-	nicht
=23	=23
4ee-	se-
8g	-hen,
8r	.
8a-	der
8g	zu
=24	=24
8f	dir
8a-	so
8cc	glu2-
4bn	|
8cc	-hend
=25	=25
4f	eilt,
4.b-	und
8cc	die
=26	=26
4b-	Seuf-
8an	-zer,
8r	.
8a-	sie
8b-	ver-
=27	=27
4a-	-we-
8g	-hen
8r	.
8ee-	in
8dd	dem
=28	=28
4dd	Rau-
8cc	|
8b-	-me,
8a-	der
8f	uns
=29	=29
4e-}	teilt.}
4r	.
4r	.
=31	=31
4r	.
{4b-	{Will
4b-	denn
=32	=32
4.b-	nichts
8cc	mehr
8dd	zu
8ee-	dir
=33	=33
4ee-	drin-
8g	-gen,
8r	.
8a-	nichts
8g	der
=34	=34
8f	Lie-
8a-	-be
4cc	Bo-
8bn	|
8cc	-te
=35	=35
4f	sein?
4.b-	Sin-
8cc	-gen
=36	=36
4b-	will
4an	ich,
12a-	Lie-
12cc	|
12b-	-der
=37	=37
4a-	sin-
4g	-gen,
8ee-	die
8dd	dir
=38	=38
4dd	kla-
8cc	|
8b-	-gen
8a-	mei-
8f	-ne
=39	=39
4e-}	Pein!}
4r	.
4r	.
=41	=41
4r	.
{4b-	{Denn
4b-	vor
=42	=42
4.b-	Lie-
8cc	-des-
8dd	-klang
8ee-	ent-
=43	=43
4ee-	-wei-
8g	-chet
8r	.
8a-	je-
8g	-der
=44	=44
8f	Raum
8a-	und
4cc	je-
4cc	-de
=45	=45
4f	Zeit,
4.b-	und
8cc	din
=46	=46
4b-	lie-
8an	|
8an	-bend
8a-	Herz
8b-	er-
=47	=47
4a-	-rei-
4g	-chet,
8ee-	was
8dd	ein
=48	=48
4dd	lie-
8cc	|
8b-	-bend
8a-	Herz
8f	ge-
=49	=49
4e-}	-weiht!}
4r	.
4r	.
=57	=57
*k[f#]	*
*M6/8	*
*MM[poco allegretto]	*
4r	.
8r	.
{4g	{Wo
8a	die
=58	=58
[4.b	Ber-
8b]	|
8b	-ge
8a	so
=59	=59
4.g	blau
8r	.
8a	aus
8b	dem
=60	=60
[4.cc	neb-
8cc]	|
8cc	-li-
8b	-gen
=61	=61
4.a	Grau
8cc	schau-
8cc	-en
8b	her-
=62	=62
4.a}	-ein,}
4r	.
8r	.
=63	=63
4r	.
8r	.
{4a	{wo
8b	die
=64	=64
[4.cc	Son-
8cc]	|
8cc	-ne
8b	ver-
=65	=65
4.a	-glu2ht,
4b	wo
8cc	die
=66	=66
[4.dd	Wol-
8dd]	|
8dd	-ke
8cc	um-
=67	=67
4.b	-zieht,
8dd	mo2ch-
8dd	-te
8c	ich
=68	=68
4.b	sein!
4r	.
8r	.
=69	=69
4r	.
8r	.
8dd	mo2ch-
8dd	-te
8cc	ich
=70	=70
4.b}	sein!}
4r	.
8r	.
=72	=72
4r	.
8r	.
{4g	{Dort
8g	im
=73	=73
*k[]	*
[4.g	ru-
8g]	|
8g	-hi-
8g	-gen
=74	=74
4.g	Tal
4g	schwei-
8g	-gen
=75	=75
[4.g	Schmer-
8g]	|
8g	-zen
8g	und
=76	=76
4.g	Qual;
8g	wo
8g	im
8g	Ge-
=77	=77
4.g	-stein
4g	still
8g	die
=78	=78
[4.g	Pri-
8g]	|
8g	-mel
8g	dort
=79	=79
4.g	sinnt,
4g	weht
8g	so
=80	=80
[4.g	lei-
8g]	|
8g	-se
8g	der
=81	=81
4.g	Wind,
8g	mo2ch-
8g	-te
8g	ich
=82	=82
4.g	sein!
4r	.
8r	.
=83	=83
4r	.
8r	.
8g	mo2ch-
8g	-te
8g	ich
=84	=84
4.g}	sein!}
4r	.
8r	.
=86	=86
*k[f#]	*
4r	.
8r	.
{4g	{Hin
8a	zum
=87	=87
[4.b	sin-
8b]	|
8b	-ni-
8a	-gen
=88	=88
4.g	Wald
4a	dra2ngt
8b	mich
=89	=89
[4.cc	Lie-
8cc]	|
8cc	-bes-
8b	-ge-
=90	=90
4.a	-walt,
8cc	in-
8cc	-ne-
8b	-re
=91	=91
4.a}	Pein,}
4r	.
8r	.
=92	=92
4r	.
8r	.
{8.cc	{in-
16cc	-ne-
8b-	-re
=93	=93
4.a	Pein.
4a	Ach,
8bn	mich
=94	=94
[4.cc	zo2g's
8cc]	|
8cc	nicht
8b	von
=95	=95
4.a	hier,
4b	ko2nnt'
8cc	ich
=96	=96
[4.dd	Trau-
8dd]	|
8dd	-te!
8cc	bei
=97	=97
4.b	dir
8dd	e-
8dd	-wig-
8cc	-lich
=98	=98
4.b	sein!
4r	.
8r	.
=99	=99
4r	.
8r	.
8.dd	e-
16dd	-wig-
8cc	-lich
=100	=100
*k[]	*
*M4/4	*
*MM[allegro assai]	*
4b}	-sein!}
4r	.
2r	.
=104	=104
*k[b-e-a-d-]	*
{8cc	{Leich-
8r	.
8bn	-te
8r	.
8cc	Seg-
8r	.
8a-	-ler
8r	.
=105	=105
8cc	in
8r	.
8dd-	den
8r	.
4ee-	Ho2-
8cc	-hen
8r	.
=106	=106
8cc	und
8r	.
8b-	du
8r	.
8a-	Ba2ch-
8r	.
8g	-lein,
8r	.
=107	=107
8f	klein
8r	.
8g	und
8r	.
2e-	schmal:
=108	=108
8e-	ko2nnt
8r	.
8g	mein
8r	.
8b-	Lieb-
8r	.
8g	-chen
8r	.
=109	=109
8b-	ihr
8r	.
8cc	er-
8r	.
4dd-	-spa2-
8ddn	-hen,
8r	.
=110	=110
8ee-	gru2sst
8r	.
8ee-	sie
8r	.
8dd-	mir
8r	.
8cc	viel
8r	.
=111	=111
8dd-	tau-
8r	.
8b-	-send-
8r	.
2a-}	-mal!}
=114	=114
{8cc	{Seht,
8r	.
8bn	ihr
8r	.
8cc	Wol-
8r	.
8a-	-ken,
8r	.
=115	=115
8cc	sie
8r	.
8dd-	denn
8r	.
4ee-	ge-
8cc	-hen,
8r	.
=116	=116
4cc	sin-
8b-	-nend
8r	.
4a-	in
4g	dem
=117	=117
4f	stil-
4g	-len
2e-	Tal,
=118	=118
4e-	lasst
4g	mein
4b-	Bild
4g	vor
=119	=119
4b-	ihr
4cc	ent-
4dd-	-ste-
8ddn	-hen
8r	.
=120	=120
8ee-	in
8r	.
8ee-	dem
8r	.
8dd-	luft'-
8r	.
8cc	-gen
8r	.
=121	=121
8dd-	Him-
8r	.
8b-	-mels-
8r	.
2a-}	-saal.}
=124	=124
{8cc-	{Wird
8r	.
8b-	sie
8r	.
8cc	an
8r	.
8a-	den
8r	.
=125	=125
8cc-	Bu2-
8r	.
8dd-	-schen
8r	.
4ee-	ste-
8cc-	-hen,
8r	.
=126	=126
4cc-	die
4b-	nun
4a-	herbst-
4g-	-lich
=127	=127
4f	falb
4g-	und
2e-	kahl,
=128	=128
4e-	klagt
4gn	ihr,
4b-	wie
4g	mir
=129	=129
4b-	ist
4cc-	ge-
4dd-	-sche-
4ddn	-hen,
=130	=130
4ee-	klagt
4ee-	ihr,
4dd-	Vo2g-
4cc-	-lein!
=131	=131
4dd-	mei-
4b-	-ne
2a-}	Qual.}
=134	=134
{8cc-	{Stil-
8r	.
8b-	-le
8r	.
8cc-	We-
8r	.
8a-	-ste,
8r	.
=135	=135
8cc-	bringt
8r	.
8dd-	im
8r	.
4ee-	We-
8cc-	-hen
8r	.
=136	=136
8cc-	hin
8r	.
8b-	zu
8r	.
8a-	mei-
8r	.
8g-	-ner
8r	.
=137	=137
8f	Her-
8r	.
8g-	-zens-
8r	.
2e-	-wahl
=138	=138
4e-	mei-
4gn	-ne
4b-	Seuf-
8g	-zer,
8r	.
=139	=139
4b-	die
4cc-	ver-
4dd-	-ge-
4ddn	-hen
=140	=140
4ee-	wie
4ee-	der
4dd-	Son-
4cc-	-ne
=141	=141
4dd-	letz-
4b-	-ter
2a-}	Strahl.}
=144	=144
{8cc-	{Flu2str'
8r	.
8b-	ihr
8r	.
8cc-	zu
8r	.
8a-	mein
8r	.
=145	=145
4cc-	Lie-
4dd-	-bes-
4ee-	-fle-
8cc-	-hen,
8r	.
=146	=146
8cc-	lass
8r	.
8b-	sie,
8r	.
8a-	Ba2ch-
8r	.
8g-	-lein,
8r	.
=147	=147
8f	klein
8r	.
8g-	und
8r	.
2e-	schmal,
=148	=148
4e-	treu
4gn	in
4b-	dei-
4g	-nen
=149	=149
4b-	Wo-
4cc-	-gen
4dd-	se-
4ddn	-hen
=150	=150
4ee-	mei-
4ee-	-ne
4dd-	Tra2-
4cc-	-nen
=151	=151
4dd-	oh-
4b-	-ne
4a-	Zahl,
[4cc-	|
=152	=152
4cc-]	|
8cc-	oh-
8cc-	-ne
4b-	Zahl,
[4ee-	|
=153	=153
*M6/8	*
*MM[nicht zu geschwinde, angenehm und mit viel empfindung]	*
2.ee-_	|
=154	=154
2.ee-_	|
=155	=155
4.ee-]}	|}
{4ee-	{Die-
8ccn	-se
=156	=156
4ff	Wol-
8dd-	-ken
4ee-	in
8cc	den
=157	=157
4dd-	Ho2-
8c-	-hen,
4dd-	die-
8b-	-ser
=158	=158
4ee-	Vo2g-
8cc	-lein
4dd-	munt-
8b-	-rer
=159	=159
4.cc	Zug
4cc	wer-
8b-	-den
=160	=160
4a-	dich,
8g	o
8f	Hul-
8b-	|
8g	-din!
=161	=161
4a-	se-
8e-	-hen
4r	.
8r	.
=162	=162
4r	.
[8ee-	"Nehmt
4ee-]	|
8cc	mich
=163	=163
4b-	mit
8cc	im
8dd-	leich-
8b-	|
8cc	-ten
=164	=164
4a-}	Flug!"}
8r	.
4r	.
8r	.
=166	=166
4r	.
8r	.
{4ee-	{Die-
8cc	-se
=167	=167
4ff	We-
8dd-	-ste
4ee-	wer-
8cc	-den
=168	=168
4dd-	spie-
8b-	-len
4dd-	scher-
8b-	-zend
=169	=169
4ee-	dir
8cc	um
4dd-	Wang'
8b-	und
=170	=170
4.cc	Brust,
4cc	in
8b-	den
=171	=171
4a-	seid-
8g	-nen
8f	Lok-
8b-	|
8g	-ken
=172	=172
4a-	wu2l-
8e-	-len
4r	.
8r	.
=173	=173
4r	.
[8ee-	"Teilt'
4ee-]	|
8cc	ich
=174	=174
4b-	mit
8cc	euch
8dd-	die-
8b-	|
8cc	-se
=175	=175
4a-}	Lust!"}
8r	.
4r	.
8r	.
=177	=177
4r	.
8r	.
{4ee-	{Hin
8cc	zu
=178	=178
4ff	dir
8d-	von
4e-	je-
8cc	-nen
=179	=179
4dd-	Hu2-
8b-	-geln
4dd-	em-
8b-	-sig
=180	=180
4ee-	die-
8cc	-ses
4dd-	Ba2ch-
8b-	-lein
=181	=181
4.cc	eilt.
4cc	"Wird
8b-	ihr
=182	=182
4a-	Bild
8g	sich
8f	in
8b-	|
8g	dir
=183	=183
4a-	spie-
8e-}	-geln,}
4r	.
8r	.
=184	=184
4r	.
{[8ee-	{fliess
4ee-]	|
8cc	zu-
=185	=185
4b-	-ru2ck
8cc	dann
8dd-	un-
8b-	|
8cc	-ver-
=186	=186
4a-	-weilt!
8r	.
4ee-	fliess
8cc	zu-
=187	=187
4b-	-ru2ck
8cc	dann
8dd-	un-
8b-	|
8cc	-ver-
=188	=188
4b-	-weilt,
8cc	ja,
4cc	un-
8cc	-ver-
=189	=189
4bn}	-weilt!"}
8r	.
4r	.
8r	.
=203	=203
*k[]	*
*M4/4	*
*MM[vivace]	*
2r	.
4r	.
{4gg	{Es
=204	=204
4gg	keh-
8ff	-ret
8ff	der
4ee	Mai-
8dd	-en,
8dd	es
=205	=205
4cc	blu2-
8a	-het
8a	die
4g	Au.
4g	Die
=206	=206
4a	Lu2f-
8b	-te,
8b	sie
4cc	we-
8b	-hen
8b	so
=207	=207
4cc	mil-
8dd	-de
8dd	so
4cc	lau,
4cc	ge-
=208	=208
4b	-schwa2t-
8a	-zig
8a	die
4b	Ba2-
8cc	-che
8cc	nun
=209	=209
2b	rin-
4a}	-nen;}
4r	.
=210	=210
2r	.
4r	.
{4a	{die
=211	=211
4a	Schwal-
8g	-be,
8g	die
4f	keh-
8g	-ret
8g	zum
=212	=212
4a	wirt-
8b-	-lich-
8b-	-en
4cc	Dach,
4a	sie
=213	=213
4a	baut
8g	sich
8g	so
4f	em-
8a	-sig
8a	ihr
=214	=214
8ff	bra2ut-
8ee	|
8dd	-lich
8cc	Ge-
4bn	-mach,
4dd	die
=215	=215
4dd	Lie-
8b	-be
8g	soll
4ee	woh-
8cc	-nen
8g	da
=216	=216
2ee	drin-
4dd	-nen,
8dd	die
8ee	|
=217	=217
4ff	Lie-
8dd	-be
8b	soll
4ee	woh-
8cc	-nen
8g	da
=218	=218
2dd	drin-
4cc}	nen.}
4r	.
=221	=221
2r	.
4r	.
{4gg	{Sie
=222	=222
4gg	bringt
8ff	sich
8ff	ge-
4ee	-scha2f-
8dd	-tig
8dd	von
=223	=223
4cc	kreuz
8a	und
8a	von
4g	quer
4g	manch
=224	=224
4a	wei-
8b	-che-
8b	-res
4cc	Stu2ck
8b	zu
8b	dem
=225	=225
4cc	Braut-
8dd	-bett
8dd	hie-
4cc	-her,
4cc	manch
=226	=226
4b	wa2r-
8a	-men-
8a	-des
4b	Stu2ck
8cc	fu2r
8cc	die
=227	=227
2b	Klei-
4a}	-nen.}
4r	.
=228	=228
2r	.
4r	.
{4a	{Nun
=229	=229
4a	woh-
8g	-nen
8g	die
4f	Gat-
8g	-ten
8g	bei-
=230	=230
4a	-sam-
8b-	-men
8b-	so
4cc	treu,
4a	was
=231	=231
4a	Win-
8g	-ter
8g	ge-
4f	-gschei-
8a	-den,
8a	ver-
=232	=232
8ff	-band
8ee	|
8dd	nun
8cc	der
4bn	Mai,
4dd	was
=233	=233
4dd	lie-
8b	-bet,
8g	das
4ee	weiss
8cc	er
8g	zu
=234	=234
2ee	ei-
4dd	-nen,
8dd	was
8ee	|
=235	=235
4ff	lie-
8dd	-bet,
8b	das
4ee	weiss
8cc	er
8g	zu
=236	=236
2dd	ei-
4cc}	-nen.}
4r	.
=239	=239
2r	.
4r	.
{4gg	{Es
=240	=240
4gg	keh-
8ff	-ret
8ff	der
4ee	Mai-
8dd	-en,
8dd	es
=241	=241
4cc	blu2-
8a	-het
8a	die
4g	Au.
4g	Die
=242	=242
4a	Lu2f-
8b	-te,
8b	sie
4cc	we-
8b	-hen
8b	so
=243	=243
4cc	mil-
8dd	-de,
8dd	so
4cc	lau,
4cc	nur
=244	=244
4b	ich
8a	kann
8a	nicht
4b	zie-
8cc	-hen
8cc	von
=245	=245
2b	hin-
4a}	-nen;}
4r	.
=246	=246
2r	.
4r	.
{4a	{wenn
=247	=247
4a	al-
8g	-les,
8g	was
4f	lie-
8g	-bet,
8g	der
=248	=248
4a	Fru2l-
8b-	-ing
8b-	ver-
4cc	-eint,
4a	nur
=249	=249
4a	un-
8g	-se-
8g	-rer
4f	Lie-
8a	-be
8ff	kein
=250	=250
8ff	Fru2h-
8ee	|
8dd	-ling
8cc	er-
4bn	-scheint,
4dd	und
=251	=251
4dd	Tra2-
8b	-nen
8g	sind
4ee	all
8cc	ihr
8g	Ge-
=252	=252
2ee	-win-
4dd	-nen,
8dd	und
8ee	|
=253	=253
4ff	Tra2-
8dd	-nen
8b	sind
4ee	all
8cc	ihr
8gg	Ge-
=254	=254
2dd	-win-
4cc	-nen,
4r	.
=255	=255
4r	.
8r	.
8b	ja,
4ee-	all
8cc	ihr
8g	Ge-
=256	=256
2dd	-win-
4cc}	-nen.}
4r	.
=266	=266
*k[b-e-a-]	*
*M2/4	*
*MM[andante con moto e cantabile]	*
{8cc	{Nimm
16cc	sie
16dd	|
8ee-	hin
8b-	denn,
=267	=267
8.b-	die-
16a-	-se
8a-	Lie-
8g	-der,
=268	=268
8f	die
8g	ich
8a-	dir,
8b-	Ge-
=269	=269
8cc	-lieb-
16b-	-te,
16a-	|
8g	sang,
8f	|
=270	=270
8f	sin-
8f	-ge
8.f	sie
16f	dann
=271	=271
8.f	a-
16g	-bends
8g	wie-
8f	-der
=272	=272
8a-	zu
8g	der
8cc	Lau-
8b-	-te
=273	=273
8.b-	su2-
16a-	-ssem
8a-	Klang.
8g}	|}
=274	=274
4r	.
8r	.
{16a-	{Wenn
16b-	das
=275	=275
8cc	Da2mm-
8cc	-rungs-
8.b-	-rot
16b-	dann
=276	=276
8a-	zie-
8a-	-het
8r	.
16g	nach
16g	dem
=277	=277
8g	stil-
8g	-len
8g	blau-
8g	-en
=278	=278
4g	See,
8r	.
16g	und
16bn	sein
=279	=279
8dd	letz-
8dd	-ter
8.dd	Strahl
16f	ver-
=280	=280
8f	-glu2-
8e-	-het
8r	.
16ee-	hin-
16ee-	-ter
=281	=281
8ee-	je-
8ee-	-ner
8.ff	Ber-
16ee-	-ges-
=282	=282
2dd}	-ho2h';}
=283	=283
{8.b-	{und
16bn	du
8bn	singst,
8cc	|
=284	=284
8cc	und
16cc	du
16dd	|
8ee-	singst,
16b-	|
16b-	was
=285	=285
8.b-	ich
16a-	ge-
8a-	-sun-
8g	-gen
=286	=286
8f	was
8g	mir
8a-	aus
8b-	der
=287	=287
8cc	vol-
16b-	|
16a-	-len
8g	Brust
8f	|
=288	=288
8f	oh-
8f	-ne
8.f	Kunst-
16f	-ge-
=289	=289
8.f	-pra2ng'
16g	er-
8g	-klun-
8f	-gen,
=290	=290
8a-	nur
8g	der
8cc	Sehn-
8b-	-sucht
=291	=291
8.b-	sich
16a-	be-
8a-	-wusst,
8g}	|}
=292	=292
4r	.
{4b-	{nur,
=293	=293
8.a-	nur
16a-	der
8g	Sehn-
16b-	|
16b-	-sucht
=294	=294
8dd	sich
8ee-	be-
[4ff	-wusst:
=295	=295
*M3/4	*
*MM[ziemlich langsam un mit ausdruck]	*
8ff]	|
8b-}	|}
4r	.
4r	.
=297	=297
4r	.
{4b-	{dann
4b-	vor
=298	=298
4.b-	die-
8cc	-sen
8dd	Lie-
8ee-	-dern
=299	=299
4ee-	wei-
8g	-chert,
8r	.
8a-	was
8g	ge-
=300	=300
8f	-schie-
8a-	-den
4cc	uns
4cc	so
=301	=301
4f	weit,
4.b-	und
8cc	ein
=302	=302
4b-	lie-
8an	|
8an	-bend
8a-	Herz
8b-	er
=303	=303
4a-	-rei-
4b	-chet,
8ee-	was
8dd	ein
=304	=304
4dd	lie-
8cc	|
8b-	-bend
8a-	Herz
8f	ge-
=305	=305
*MM[Allegro moloto e con brio]	*
4e-}	-weiht,}
4r	.
4r	.
=307	=307
4r	.
4r	.
{8b-	{und
8cc	ein
=308	=308
4b-	lie-
8an	|
8an	-bend
8a-	Herz
8b-	er-
=309	=309
4a-	-rei-
4g	-chet,
8b-	was
8cc	ein
=310	=310
4b-	lie-
4an	|
8a-	-bend,
8b-	ein
=311	=311
4a-	lie-
4g	|
8ee-	-bend,
8dd	ein
=312	=312
4dd	lie-
8cc	|
8b-	-bend
8a-	Herz
8f	ge-
=313	=313
4e-}	-weiht!}
{2b-	{Dann,
=314	=314
4r	.
4b-	dann
4b-	vor
=315	=315
4b-	die-
4ee-	|
4dd	-sen
=316	=316
4cc	Lie-
4b-	|
4dd	-dern
=317	=317
4ee-	wei-
4ee-	-chet,
4r	.
=318	=318
4r	.
4b-	was
4b-	ge-
=319	=319
4b-	-schie-
4ee-	|
4d	-den
=320	=320
4cc	uns
4b-	|
4ee-	so
=321	=321
4dd	weit,
4.b-	und
8cc	ein
=322	=322
4b-	lie-
8an	|
8an	-bend
8a-	Herz
8b-	er-
=323	=323
4a-	-rei-
4g}	-chet,}
4r	.
=325	=325
4r	.
4r	.
{8b-	{was
8cc	ein
=326	=326
4b-	lie-
4an	|
8a-	-bend
8b-	|
=327	=327
4a-	Herz,
4g	|
8ee-	ein
8dd	|
=328	=328
4dd	lie-
8cc	|
8cc	-bend
8ff	Herz
8ee-	ge-
=329	=329
4dd	-weiht,
4ee-}	was,}
4r	.
=330	=330
4r	.
{4gg	{was
4gg	ein
=331	=331
4.gg	lie-
8ff	|
8ee-	-bend,
8cc	|
=332	=332
4cc	lie-
8b-	|
8ee-	|
8ee-	-bend
8gg	|
=333	=333
2gg	Herz
8ff	|
8gg	ge-
=334	=334
4ee-}	-weiht!}
4r	.
4r	.
*-	*-
